icons/pail-light.svg

<svg width="256" height="256" viewBox="0 0 256 256" fill="none" xmlns="http://www.w3.org/2000/svg">
<rect width="256" height="256" rx="60" fill="#F4F2ED" />
<path fill-rule="evenodd" clip-rule="evenodd" d="M84.97 85.761C86.8303 62.8484 99.4613 45.1324 120.701 44.483C96.044 44.8729 74.7605 57.3042 69.8722 79.6105C68.9207 84.158 68.2712 89.0962 67.9256 94.3371C72.8567 91.0882 78.5681 88.2301 84.97 85.761ZM82.1148 104.559C82.1148 102.35 81.0332 100.531 79.6925 100.531C78.3517 100.531 77.2265 102.349 77.2265 104.559C77.2265 106.768 78.3508 108.63 79.6925 108.63C81.0341 108.63 82.1148 106.811 82.1148 104.559Z" fill="#FF4848"/>
<path d="M84.97 85.761C86.8303 62.8484 99.4613 45.1324 120.701 44.483C96.044 44.8729 74.7605 57.3042 69.8722 79.6105C68.9207 84.158 68.2712 89.0962 67.9256 94.3371C72.8567 91.0882 78.5681 88.2301 84.97 85.761ZM82.1148 104.559C82.1148 102.35 81.0332 100.531 79.6925 100.531C78.3517 100.531 77.2265 102.349 77.2265 104.559C77.2265 106.768 78.3508 108.63 79.6925 108.63C81.0341 108.63 82.1148 106.811 82.1148 104.559Z" fill="url(#paint0_linear_7_2)"/>
<path fill-rule="evenodd" clip-rule="evenodd" d="M190.73 87.1384C190.73 87.1384 210.941 154.186 196.122 208.824C196.122 208.824 149.204 239.577 81.4154 210.492C81.4154 210.492 81.4154 177.475 56.074 112.066C53.2768 106.708 72.0059 98.4933 99.3011 94.2584C138.207 88.2222 190.73 87.1384 190.73 87.1384Z" fill="url(#paint1_linear_7_2)"/>
<path fill-rule="evenodd" clip-rule="evenodd" d="M132.641 45.7391C146.311 48.9442 157.644 60.3792 162.662 74.7158C162.879 75.3225 163.095 75.9292 163.311 76.5785C166.382 85.9778 168.329 97.0657 169.194 109.93C169.757 115.95 170.103 135.485 180.615 132.41C186.671 130.634 186.584 119.07 186.498 114.089C186.455 109.843 186.022 105.036 185.244 99.7082C184.378 93.7742 183.124 87.1901 181.437 79.9567C181.35 79.6535 181.264 79.3937 181.22 79.0905C172.266 49.2903 155.049 34.2604 129.613 34.0008C96.1738 33.8706 76.275 49.0744 69.873 79.6106C74.7614 57.3043 96.044 44.8729 120.702 44.4831C124.422 44.3529 128.401 44.7427 132.641 45.7391ZM179.23 114.911C181.177 114.911 182.778 117.51 182.778 120.715C182.778 123.921 181.177 126.563 179.23 126.563C177.284 126.563 175.726 123.964 175.726 120.715C175.726 117.467 177.327 114.911 179.23 114.911Z" fill="#592121"/>
<path d="M132.641 45.7391C146.311 48.9442 157.644 60.3792 162.662 74.7158C162.879 75.3225 163.095 75.9292 163.311 76.5785C166.382 85.9778 168.329 97.0657 169.194 109.93C169.757 115.95 170.103 135.485 180.615 132.41C186.671 130.634 186.584 119.07 186.498 114.089C186.455 109.843 186.022 105.036 185.244 99.7082C184.378 93.7742 183.124 87.1901 181.437 79.9567C181.35 79.6535 181.264 79.3937 181.22 79.0905C172.266 49.2903 155.049 34.2604 129.613 34.0008C96.1738 33.8706 76.275 49.0744 69.873 79.6106C74.7614 57.3043 96.044 44.8729 120.702 44.4831C124.422 44.3529 128.401 44.7427 132.641 45.7391ZM179.23 114.911C181.177 114.911 182.778 117.51 182.778 120.715C182.778 123.921 181.177 126.563 179.23 126.563C177.284 126.563 175.726 123.964 175.726 120.715C175.726 117.467 177.327 114.911 179.23 114.911Z" fill="url(#paint2_linear_7_2)"/>
<path fill-rule="evenodd" clip-rule="evenodd" d="M181.436 79.9572C183.123 87.1907 184.378 93.774 185.243 99.7087C189.698 95.5508 191.775 91.9124 191.429 88.7502C191.385 88.3603 191.299 87.9704 191.213 87.5806C190.304 84.5485 187.06 81.993 181.436 79.9572ZM90.8962 125.783C118.927 127.472 145.013 122.188 169.194 109.93C168.329 97.0655 166.383 85.9768 163.311 76.5783C153.751 75.3222 143.585 75.1921 132.77 76.102C105.863 85.1115 91.8906 101.701 90.8962 125.783Z" fill="url(#paint3_linear_7_2)"/>
<path fill-rule="evenodd" clip-rule="evenodd" d="M132.77 76.1023C105.863 85.1117 91.8906 101.701 90.8962 125.783C85.9215 125.48 80.8604 124.96 75.7128 124.224C67.9692 122.058 62.3895 119.546 59.0148 116.6C56.5488 114.478 55.3809 112.399 55.078 110.406C54.2557 104.905 60.0964 100.011 65.0702 96.329C66.0217 95.6359 66.9304 94.9866 67.9255 94.3361C72.8566 91.0876 78.5673 88.2294 84.9692 85.7603C97.9032 80.8229 113.866 77.618 132.77 76.1023ZM79.6924 100.531C81.0333 100.531 82.1148 102.35 82.1148 104.56C82.1148 106.769 81.0333 108.631 79.6924 108.631C78.3517 108.631 77.2265 106.812 77.2265 104.56C77.2265 102.307 78.3508 100.531 79.6924 100.531Z" fill="url(#paint4_linear_7_2)"/>
<defs>
<linearGradient id="paint0_linear_7_2" x1="72.1334" y1="93.7688" x2="101.014" y2="47.2652" gradientUnits="userSpaceOnUse">
<stop stop-color="#600400"/>
<stop offset="1" stop-color="#600400" stop-opacity="0"/>
</linearGradient>
<linearGradient id="paint1_linear_7_2" x1="128.675" y1="87.1384" x2="128.675" y2="223" gradientUnits="userSpaceOnUse">
<stop stop-color="#F9332B"/>
<stop offset="1" stop-color="#FF763C"/>
</linearGradient>
<linearGradient id="paint2_linear_7_2" x1="128.196" y1="34" x2="128.196" y2="132.736" gradientUnits="userSpaceOnUse">
<stop stop-color="#C20800"/>
<stop offset="1" stop-color="#D81100"/>
</linearGradient>
<linearGradient id="paint3_linear_7_2" x1="141.181" y1="75.5119" x2="141.181" y2="126.09" gradientUnits="userSpaceOnUse">
<stop stop-color="#DB0800"/>
<stop offset="1" stop-color="#710400"/>
</linearGradient>
<linearGradient id="paint4_linear_7_2" x1="93.8851" y1="76.1012" x2="93.8851" y2="125.783" gradientUnits="userSpaceOnUse">
<stop stop-color="#9D0701"/>
<stop offset="1" stop-color="#4B0300"/>
</linearGradient>
</defs>
</svg>

<svg xmlns="http://www.w3.org/2000/svg" width="256" height="256" fill="none"><rect width="256" height="256" fill="#F4F2ED" rx="60"/><path fill="#FF4848" fill-rule="evenodd" d="M84.97 85.761c1.86-22.913 14.491-40.629 35.731-41.278-24.657.39-45.94 12.821-50.829 35.128-.951 4.547-1.6 9.485-1.946 14.726 4.93-3.249 10.642-6.107 17.044-8.576m-2.855 18.798c0-2.209-1.082-4.028-2.422-4.028s-2.466 1.818-2.466 4.028 1.124 4.071 2.465 4.071c1.342 0 2.423-1.819 2.423-4.071" clip-rule="evenodd"/><path fill="url(#paint0_linear_7_2)" d="M84.97 85.761c1.86-22.913 14.491-40.629 35.731-41.278-24.657.39-45.94 12.821-50.829 35.128-.951 4.547-1.6 9.485-1.946 14.726 4.93-3.249 10.642-6.107 17.044-8.576m-2.855 18.798c0-2.209-1.082-4.028-2.422-4.028s-2.466 1.818-2.466 4.028 1.124 4.071 2.465 4.071c1.342 0 2.423-1.819 2.423-4.071"/><path fill="url(#paint1_linear_7_2)" fill-rule="evenodd" d="M190.73 87.138s20.211 67.048 5.392 121.686c0 0-46.918 30.753-114.707 1.668 0 0 0-33.017-25.341-98.426-2.797-5.358 15.932-13.573 43.227-17.808 38.906-6.036 91.429-7.12 91.429-7.12" clip-rule="evenodd"/><path fill="#592121" fill-rule="evenodd" d="M132.641 45.74c13.67 3.204 25.003 14.64 30.021 28.976.217.607.433 1.213.649 1.863 3.071 9.399 5.018 20.487 5.883 33.351.563 6.02.909 25.555 11.421 22.48 6.056-1.776 5.969-13.34 5.883-18.321-.043-4.246-.476-9.053-1.254-14.38-.866-5.935-2.12-12.519-3.807-19.752-.087-.303-.173-.563-.217-.866-8.954-29.8-26.171-44.83-51.607-45.09-33.44-.13-53.338 15.073-59.74 45.61 4.888-22.307 26.171-34.738 50.829-35.128 3.72-.13 7.699.26 11.939 1.256m46.589 69.171c1.947 0 3.548 2.599 3.548 5.804s-1.601 5.848-3.548 5.848c-1.946 0-3.504-2.599-3.504-5.848s1.601-5.804 3.504-5.804" clip-rule="evenodd"/><path fill="url(#paint2_linear_7_2)" d="M132.641 45.74c13.67 3.204 25.003 14.64 30.021 28.976.217.607.433 1.213.649 1.863 3.071 9.399 5.018 20.487 5.883 33.351.563 6.02.909 25.555 11.421 22.48 6.056-1.776 5.969-13.34 5.883-18.321-.043-4.246-.476-9.053-1.254-14.38-.866-5.935-2.12-12.519-3.807-19.752-.087-.303-.173-.563-.217-.866-8.954-29.8-26.171-44.83-51.607-45.09-33.44-.13-53.338 15.073-59.74 45.61 4.888-22.307 26.171-34.738 50.829-35.128 3.72-.13 7.699.26 11.939 1.256m46.589 69.171c1.947 0 3.548 2.599 3.548 5.804s-1.601 5.848-3.548 5.848c-1.946 0-3.504-2.599-3.504-5.848s1.601-5.804 3.504-5.804"/><path fill="url(#paint3_linear_7_2)" fill-rule="evenodd" d="M181.436 79.957c1.687 7.234 2.942 13.817 3.807 19.752 4.455-4.158 6.532-7.797 6.186-10.959-.044-.39-.13-.78-.216-1.17-.909-3.031-4.153-5.587-9.777-7.623m-90.54 45.826c28.031 1.689 54.117-3.595 78.298-15.853-.865-12.865-2.811-23.953-5.883-33.352-9.56-1.256-19.726-1.386-30.541-.476-26.907 9.01-40.88 25.599-41.874 49.681" clip-rule="evenodd"/><path fill="url(#paint4_linear_7_2)" fill-rule="evenodd" d="M132.77 76.102c-26.907 9.01-40.88 25.599-41.874 49.681a188 188 0 0 1-15.183-1.559c-7.744-2.166-13.323-4.678-16.698-7.624-2.466-2.122-3.634-4.201-3.937-6.194-.822-5.501 5.018-10.395 9.992-14.077a68 68 0 0 1 2.856-1.993c4.93-3.248 10.641-6.107 17.043-8.576 12.934-4.937 28.897-8.142 47.801-9.658m-53.078 24.429c1.341 0 2.423 1.819 2.423 4.029s-1.082 4.071-2.423 4.071-2.465-1.819-2.465-4.071c0-2.253 1.124-4.029 2.465-4.029" clip-rule="evenodd"/><defs><linearGradient id="paint0_linear_7_2" x1="72.133" x2="101.014" y1="93.769" y2="47.265" gradientUnits="userSpaceOnUse"><stop stop-color="#600400"/><stop offset="1" stop-color="#600400" stop-opacity="0"/></linearGradient><linearGradient id="paint1_linear_7_2" x1="128.675" x2="128.675" y1="87.138" y2="223" gradientUnits="userSpaceOnUse"><stop stop-color="#F9332B"/><stop offset="1" stop-color="#FF763C"/></linearGradient><linearGradient id="paint2_linear_7_2" x1="128.196" x2="128.196" y1="34" y2="132.736" gradientUnits="userSpaceOnUse"><stop stop-color="#C20800"/><stop offset="1" stop-color="#D81100"/></linearGradient><linearGradient id="paint3_linear_7_2" x1="141.181" x2="141.181" y1="75.512" y2="126.09" gradientUnits="userSpaceOnUse"><stop stop-color="#DB0800"/><stop offset="1" stop-color="#710400"/></linearGradient><linearGradient id="paint4_linear_7_2" x1="93.885" x2="93.885" y1="76.101" y2="125.783" gradientUnits="userSpaceOnUse"><stop stop-color="#9D0701"/><stop offset="1" stop-color="#4B0300"/></linearGradient></defs></svg>
